X: 2109
T: Çün Sana Gönlüm Müptelâ Düştü
C: Hâfız Post
O: Turkey
F: http://compmusic.upf.edu/node/140
N: huseyni-gulizar--ilahi--sofyan--cun_sana--hafiz_post
N: makam= huseyni-gulizar
N: form= ilahi
N: usul= sofyan = 4/4
M: 4/4
L: 1/16
K: C _2/4B ^3/4f  
Q: 1/4=87
%%MIDI tuningsystem comma53
a4 g4 f4 e4  | e2de d2e2 e4 a4  | a4 g4 f4 e4  | \
w:  Çün  sa na  gön  |  lüm   |  müp te lâ  düş  | 
e2de d2e2 e4 a4  | 
w:  tü    | 
a4 g4 f4 e4  | e2de d2e2 e4 a4  | a4 g4 f4 e4  | \
w:  Çün  sa na  gön  |  lüm   |  müp te lâ  düş  | 
e2de d2e2 e4 z4  | 
w:  tü    | 
d4 e4 d4 e2f2  | g2=f2 e2d2 c2d2 c2B2  | \
w:  Derd_ ü  gam  ba  |  na  *  *  e fen *  *  dim   | 
A2B2 c2d2 A4 e4  | d4 e4 d4 e2f2  | 
w:  hay  *  *  me ded   |  â şi nâ  düş  | 
g2=f2 e2d2 c2B2 e2d2  | c4 c4 c4 d2e2  | \
w:  tü    |  Al la hım  Al  | 
d2c2 B2d2 c4 z4  | c4 c4 c4 d2e2  | 
w:  lah    |  Zühd_ ü  tak vâ  | 
d2c2 B2d2 c4 g4  | g2a2 g2^f2 _7/8e2d2 c4  | \
w:  ya   |  yâr  *  i *  dim  *  ev  | 
c2d4c2 =f8  | =f4 f4 f4 a2g2  | 
w:  *  vel  a man    |  Aş kın la  ben  | 
=f2e4d2 c2d2 c2_1/4B2  | A2_1/4B2 c2d2 A4 e4  | \
w:  *  den  e fen *  *  dim   |  hay  *  *  me ded   | 
d4 e4 d4 e2^f2  | g2=f2 e2d2 c2_1/4B2 e2d2  | 
w:  hep  cü dâ  düş  |  tü    | 
c4 c4 A4 e4  | d2c2 B2A2 A4 z4  | a4 g4 f4 e4  | \
w:  Al la hım  Al  |  lah    |  Çün  sa na  gön  | 
e2de d2e2 e4 a4  | 
w:  lüm   | 
a4 g4 f4 e4  | e2de d2e2 e4 a4  | a4 g4 f4 e4  | \
w:  müp te lâ  düş  |  tü    |  Çün  sa na  gön  | 
e2de d2e2 e4 a4  | 
w:  lüm   | 
a4 g4 f4 e4  | e2de d2e2 e4 z4  | d4 e4 d4 e2f2  | \
w:  müp te lâ  düş  |  tü    |  Derd_ ü  gam  ba  | 
g2=f2 e2d2 c2d2 c2B2  | 
w:  na  *  *  e fen *  *  dim   | 
A2B2 c2d2 A4 e4  | d4 e4 d4 e2f2  | g2=f2 e2d2 c2B2 e2d2  | \
w:  hay  *  *  me ded   |  â şi nâ  düş  |  tü    | 
c4 c4 c4 d2e2  | 
w:  Al la hım  Al  | 
d2c2 B2d2 c4 z4  | c4 c4 c4 d2e2  | d2c2 B2d2 c4 g4  | \
w:  lah    |  Zühd_ ü  tak vâ  |  ya   | 
g2a2 g2^f2 _7/8e2d2 c4  | 
w:  yâr  *  i *  dim  *  ev  | 
c2d4c2 =f8  | =f4 f4 f4 a2g2  | =f2e4d2 c2d2 c2_1/4B2  | \
w:  *  vel  a man    |  Aş kın la  ben  |  *  den  e fen *  *  dim   | 
A2_1/4B2 c2d2 A4 e4  | 
w:  hay  *  *  me ded   | 
d4 e4 d4 e2^f2  | g2=f2 e2d2 c2_1/4B2 e2d2  | \
w:  hep  cü dâ  düş  |  tü    | 
c4 c4 A4 e4  | d2c2 B2A2 A4 z4  | 
w:  Al la hım  Al  |  lah    | 
|


